src/assets/img/tech/flow.svg

<svg xmlns="http://www.w3.org/2000/svg" width="256" height="317"><path fill="#FFDF51" fill-opacity=".7" d="M188.52 268.137v-59.272h-58.797l58.797 59.272"/><path fill="#FF8900" fill-opacity=".7" d="M195.117 234.53v-64.106h-63.592l63.592 64.106"/><linearGradient id="a" gradientUnits="userSpaceOnUse" x1="-175.575" y1="551.866" x2="-175.165" y2="551.76" gradientTransform="matrix(87.8219 0 0 -88.5333 15586.757 49102.254)"><stop offset="0" stop-color="#ffd441"/><stop offset="1" stop-color="#ffb047"/></linearGradient><path fill="url(#a)" fill-opacity=".7" d="M156.498 208.862v64.106h63.592l-63.592-64.106"/><path fill="#FFDF4F" fill-opacity=".7" d="M181.824 174.717v-50.706h-50.3l50.3 50.706"/><linearGradient id="b" gradientUnits="userSpaceOnUse" x1="-175.293" y1="551.384" x2="-175.077" y2="551.86" gradientTransform="matrix(87.8219 0 0 -88.5333 15566.882 48949.875)"><stop offset="0" stop-color="#ffd754"/><stop offset="1" stop-color="#ffb532"/></linearGradient><path fill="url(#b)" fill-opacity=".8" d="M205.705 162.628V98.521h-63.591l63.591 64.107"/><linearGradient id="c" gradientUnits="userSpaceOnUse" x1="-175.081" y1="551.069" x2="-175.081" y2="551.481" gradientTransform="matrix(87.8219 0 0 -88.5333 15505.006 48874.188)"><stop offset="0" stop-color="#ffd642"/><stop offset="0" stop-color="#ffd441"/><stop offset="1" stop-color="#ffb532"/></linearGradient><path fill="url(#c)" fill-opacity=".8" d="M97.317 43.683v64.106h63.591L97.317 43.683"/><linearGradient id="d" gradientUnits="userSpaceOnUse" x1="-174.971" y1="551.356" x2="-175.524" y2="551.482" gradientTransform="matrix(106.1984 0 0 -88.5515 18681.28 48934.379)"><stop offset="0" stop-color="#ffd441"/><stop offset="1" stop-color="#ffa829"/></linearGradient><path fill="url(#d)" fill-opacity=".88" d="M112.232 144.091V79.984H35.334l63.316 64.12 13.582-.013"/><path fill="#FFB700" fill-opacity=".7" d="M112.232 272.623v-77.557H35.334l76.898 77.557"/><path fill="#FFB700" fill-opacity=".5" d="M112.25 208.391v-64.106H48.658l63.592 64.106"/><path fill="#FFCD25" fill-opacity=".7" d="M131.524 124.009v64.107h63.591l-63.591-64.107"/><path fill="#FF8900" fill-opacity=".7" d="M112.088 131.226V67.119H48.497l63.591 64.107m17.635 77.636v64.106h63.592l-63.592-64.106"/></svg>

<?xml version="1.0" encoding="utf-8"?>
<!-- Generator: Adobe Illustrator 16.0.0, SVG Export Plug-In . SVG Version: 6.00 Build 0)  -->
<!DOCTYPE svg PUBLIC "-//W3C//DTD SVG 1.1//EN" "http://www.w3.org/Graphics/SVG/1.1/DTD/svg11.dtd">
<svg version="1.1" id="Ebene_1" xmlns="http://www.w3.org/2000/svg" xmlns:xlink="http://www.w3.org/1999/xlink" x="0px" y="0px"
	 width="256px" height="317px" viewBox="0 0 256 317" enable-background="new 0 0 256 317" xml:space="preserve">
<g>
	<path fill="#FFDF51" fill-opacity="0.7" d="M188.52,268.137v-59.272h-58.797L188.52,268.137"/>
	<path fill="#FF8900" fill-opacity="0.7" d="M195.117,234.53v-64.106h-63.592L195.117,234.53"/>
	
		<linearGradient id="SVGID_1_" gradientUnits="userSpaceOnUse" x1="-175.5752" y1="551.8662" x2="-175.1654" y2="551.7598" gradientTransform="matrix(87.8219 0 0 -88.5333 15586.7568 49102.2539)">
		<stop  offset="0" style="stop-color:#FFD441"/>
		<stop  offset="1" style="stop-color:#FFB047"/>
	</linearGradient>
	<path fill="url(#SVGID_1_)" fill-opacity="0.7" d="M156.498,208.862v64.106h63.592L156.498,208.862"/>
	<path fill="#FFDF4F" fill-opacity="0.7" d="M181.824,174.717v-50.706h-50.3L181.824,174.717"/>
	
		<linearGradient id="SVGID_2_" gradientUnits="userSpaceOnUse" x1="-175.293" y1="551.3838" x2="-175.0775" y2="551.8598" gradientTransform="matrix(87.8219 0 0 -88.5333 15566.8818 48949.875)">
		<stop  offset="0" style="stop-color:#FFD754"/>
		<stop  offset="1" style="stop-color:#FFB532"/>
	</linearGradient>
	<path fill="url(#SVGID_2_)" fill-opacity="0.8" d="M205.705,162.628V98.521h-63.591L205.705,162.628"/>
	
		<linearGradient id="SVGID_3_" gradientUnits="userSpaceOnUse" x1="-175.0806" y1="551.0693" x2="-175.0806" y2="551.4811" gradientTransform="matrix(87.8219 0 0 -88.5333 15505.0059 48874.1875)">
		<stop  offset="0" style="stop-color:#FFD642"/>
		<stop  offset="0" style="stop-color:#FFD441"/>
		<stop  offset="1" style="stop-color:#FFB532"/>
	</linearGradient>
	<path fill="url(#SVGID_3_)" fill-opacity="0.8" d="M97.317,43.683v64.106h63.591L97.317,43.683"/>
	
		<linearGradient id="SVGID_4_" gradientUnits="userSpaceOnUse" x1="-174.9712" y1="551.3564" x2="-175.5242" y2="551.4819" gradientTransform="matrix(106.1984 0 0 -88.5515 18681.2793 48934.3789)">
		<stop  offset="0" style="stop-color:#FFD441"/>
		<stop  offset="1" style="stop-color:#FFA829"/>
	</linearGradient>
	<path fill="url(#SVGID_4_)" fill-opacity="0.88" d="M112.232,144.091V79.984H35.334l63.316,64.12L112.232,144.091"/>
	<path fill="#FFB700" fill-opacity="0.7" d="M112.232,272.623v-77.557H35.334L112.232,272.623"/>
	<path fill="#FFB700" fill-opacity="0.5" d="M112.25,208.391v-64.106H48.658L112.25,208.391"/>
	<path fill="#FFCD25" fill-opacity="0.7" d="M131.524,124.009v64.107h63.591L131.524,124.009"/>
	<path fill="#FF8900" fill-opacity="0.7" d="M112.088,131.226V67.119H48.497L112.088,131.226"/>
	<path fill="#FF8900" fill-opacity="0.7" d="M129.723,208.862v64.106h63.592L129.723,208.862"/>
</g>
</svg>
